src/assets/Images/Misc/facebook.svg

<svg width="20" height="20" viewBox="0 0 20 20" fill="none" xmlns="http://www.w3.org/2000/svg">
<path d="M20 9.69899C20 4.34515 15.52 0 10 0C4.48 0 0 4.34515 0 9.69899C0 14.3933 3.44 18.302 8 19.204V12.6087H6V9.69899H8V7.27424C8 5.40234 9.57 3.8796 11.5 3.8796H14V6.78929H12C11.45 6.78929 11 7.22575 11 7.75919V9.69899H14V12.6087H11V19.3495C16.05 18.8645 20 14.7328 20 9.69899Z" fill="#09283F"/>
</svg>

<svg width="20" height="20" fill="none" xmlns="http://www.w3.org/2000/svg"><path d="M20 9.699C20 4.345 15.52 0 10 0S0 4.345 0 9.699c0 4.694 3.44 8.603 8 9.505v-6.595H6v-2.91h2V7.274C8 5.402 9.57 3.88 11.5 3.88H14v2.91h-2c-.55 0-1 .436-1 .97v1.939h3v2.91h-3v6.74c5.05-.485 9-4.616 9-9.65Z" fill="#09283F"/></svg>
